icons/evolvere-blue-folders-flat-vivid-dark-fallback/devices/64/drive-harddisk.svg

<?xml version="1.0" encoding="UTF-8" standalone="no"?>
<!-- Created with Inkscape (http://www.inkscape.org/) -->

<svg
   xmlns:dc="http://purl.org/dc/elements/1.1/"
   xmlns:cc="http://creativecommons.org/ns#"
   xmlns:rdf="http://www.w3.org/1999/02/22-rdf-syntax-ns#"
   xmlns:svg="http://www.w3.org/2000/svg"
   xmlns="http://www.w3.org/2000/svg"
   xmlns:sodipodi="http://sodipodi.sourceforge.net/DTD/sodipodi-0.dtd"
   xmlns:inkscape="http://www.inkscape.org/namespaces/inkscape"
   width="64"
   height="64"
   id="svg13094"
   version="1.1"
   inkscape:version="0.48.4 r9939"
   sodipodi:docname="drive-harddisk.svg">
  <sodipodi:namedview
     id="base"
     pagecolor="#ffffff"
     bordercolor="#666666"
     borderopacity="1.0"
     inkscape:pageopacity="0"
     inkscape:pageshadow="2"
     inkscape:zoom="8.0000004"
     inkscape:cx="25.390862"
     inkscape:cy="36.650037"
     inkscape:document-units="px"
     inkscape:current-layer="svg13094"
     showgrid="true"
     inkscape:snap-bbox="true"
     inkscape:bbox-paths="true"
     inkscape:bbox-nodes="true"
     inkscape:snap-bbox-edge-midpoints="true"
     inkscape:snap-bbox-midpoints="true"
     inkscape:object-paths="true"
     inkscape:snap-intersection-paths="true"
     inkscape:object-nodes="true"
     inkscape:snap-smooth-nodes="true"
     inkscape:snap-midpoints="true"
     inkscape:snap-object-midpoints="true"
     inkscape:snap-center="true"
     showguides="true"
     inkscape:guide-bbox="true"
     inkscape:window-width="1920"
     inkscape:window-height="1025"
     inkscape:window-x="-2"
     inkscape:window-y="32"
     inkscape:window-maximized="1"
     inkscape:snap-global="true"
     fit-margin-top="0"
     fit-margin-left="0"
     fit-margin-right="0"
     fit-margin-bottom="0"
     showborder="true"
     inkscape:showpageshadow="false"
     inkscape:snap-page="true">
    <inkscape:grid
       type="xygrid"
       id="grid3075"
       empspacing="5"
       visible="true"
       enabled="true"
       snapvisiblegridlinesonly="true"
       originx="1.6362304e-08px"
       originy="18px" />
  </sodipodi:namedview>
  <defs
     id="defs13096" />
  <metadata
     id="metadata13099">
    <rdf:RDF>
      <cc:Work
         rdf:about="">
        <dc:format>image/svg+xml</dc:format>
        <dc:type
           rdf:resource="http://purl.org/dc/dcmitype/StillImage" />
        <dc:title />
      </cc:Work>
    </rdf:RDF>
  </metadata>
  <path
     inkscape:connector-curvature="0"
     style="color:#000000;fill:#3b577a;fill-opacity:1;fill-rule:nonzero;stroke:none;stroke-width:1;marker:none;visibility:visible;display:inline;overflow:visible;enable-background:accumulate;opacity:1;stroke-linecap:butt;stroke-linejoin:miter;stroke-miterlimit:4;stroke-dasharray:none;stroke-dashoffset:0;stroke-opacity:1"
     d="m 64,4 0,30 0,28 -2,2 L 32,64 2,64 0,62 0,34 0,4 32,4 64,4 z"
     id="path4095" />
  <path
     inkscape:connector-curvature="0"
     style="color:#000000;fill:#668cbb;fill-opacity:1;fill-rule:nonzero;stroke:none;stroke-width:2.28571415;marker:none;visibility:visible;display:inline;overflow:visible;enable-background:accumulate;opacity:1;stroke-linecap:butt;stroke-linejoin:miter;stroke-miterlimit:4;stroke-dasharray:none;stroke-dashoffset:0;stroke-opacity:1"
     d="M 62,0 64,1 64,4 32,4 0,4 0,1 2,0 32,0 62,0 z"
     id="path4090" />
  <path
     d="M 64,6 62,4 64,3 z"
     id="path3028"
     style="fill:#4f7098;fill-opacity:1;opacity:1;stroke:none;stroke-width:0.99989079999999997;stroke-linecap:butt;stroke-linejoin:miter;stroke-miterlimit:4;stroke-dasharray:none;stroke-dashoffset:0;stroke-opacity:1;marker:none"
     inkscape:connector-curvature="0" />
  <g
     id="g3043"
     inkscape:export-filename="folder.png"
     inkscape:export-xdpi="90"
     inkscape:export-ydpi="90"
     transform="translate(-0.62500009,0.082283)" />
  <g
     id="scalable"
     transform="matrix(1.0385892,0,0,1.0385892,1214.7222,1878.8121)"
     inkscape:label="#g3701"
     style="fill:#ffffff" />
  <path
     style="fill:#162f4d;fill-opacity:0.35241502;stroke:none;opacity:1;stroke-width:0.62299293;stroke-linecap:butt;stroke-linejoin:miter;stroke-miterlimit:4;stroke-dasharray:none;stroke-dashoffset:0;stroke-opacity:1;marker:none"
     d="m 31.5,5.875 c 4.218899,0 8.177448,1.1062254 11.59375,3.0625 0.730292,-0.4407953 1.580926,-0.8486958 2.4375,-0.875 0.191397,-0.00588 0.374073,-0.00398 0.5625,0.03125 l 4.9375,1.6875 c 1.290264,0.593547 1.365044,1.813726 0.75,2.78125 l -1.71875,2.53125 c 3.002894,3.930578 4.8125,8.827907 4.8125,14.15625 0,1.771025 -0.219985,3.49864 -0.59375,5.15625 L 60.25,37.875 l 0,3.8125 0,14.6875 c -0.341438,2.289981 -1.389934,3.937181 -3.5625,4.5625 l -48.3125,0 -5.8125,-6.0625 0,-5.78125 c -0.07576,-0.370243 -0.125,-0.76361 -0.125,-1.15625 0,-3.141119 2.546381,-5.6875 5.6875,-5.6875 1.676843,0 3.177795,0.720569 4.21875,1.875 L 13,43.5 C 9.951029,39.557767 8.125,34.621025 8.125,29.25 c 0,-4.624449 1.369413,-8.934733 3.6875,-12.5625 L 9.59375,15.5 c 0,-4.911372 3.347522,-8.1875 8.21875,-8.1875 l 5.65625,0 C 25.973591,6.3953546 28.67743,5.875 31.5,5.875 z"
     id="path3861"
     inkscape:connector-curvature="0"
     sodipodi:nodetypes="scsccccsccccccccssccsccscs" />
  <path
     sodipodi:type="arc"
     style="color:#000000;fill:#bfccd6;fill-opacity:1;fill-rule:nonzero;stroke:none;stroke-width:2.28571415;marker:none;visibility:visible;display:inline;overflow:visible;enable-background:accumulate"
     id="path3990"
     sodipodi:cx="32.5"
     sodipodi:cy="32.25"
     sodipodi:rx="19.030405"
     sodipodi:ry="19.030405"
     d="m 51.530405,32.25 a 19.030405,19.030405 0 1 1 -38.06081,0 19.030405,19.030405 0 1 1 38.06081,0 z"
     transform="matrix(-1.0650241,0,0,1.0650241,66.113286,-5.1022341)" />
  <g
     id="g4481"
     transform="matrix(-1.1986662,0,0,1.1986662,70.45665,-5.8099508)">
    <circle
       transform="matrix(0.32878725,0,0,-0.32878725,21.814414,39.848183)"
       id="path4459"
       style="color:#000000;display:inline;overflow:visible;visibility:visible;opacity:1;fill:#162f4d;fill-opacity:0.58050088;fill-rule:nonzero;stroke:none;stroke-width:1.89482081;stroke-linecap:butt;stroke-linejoin:miter;stroke-miterlimit:4;stroke-dasharray:none;stroke-dashoffset:0;stroke-opacity:1;marker:none;enable-background:accumulate"
       cx="32.5"
       cy="32.25"
       r="19.030405"
       d="m 51.530405,32.25 c 0,10.510202 -8.520203,19.030405 -19.030405,19.030405 -10.510202,0 -19.030405,-8.520203 -19.030405,-19.030405 0,-10.510202 8.520203,-19.030405 19.030405,-19.030405 10.510202,0 19.030405,8.520203 19.030405,19.030405 z" />
  </g>
  <path
     id="path4057"
     d="M 17.1875,8.46875 20.875,8.5 c -2.131164,1.0939543 -4.093859,2.48803 -5.78125,4.15625 L 13.1875,10.0625 c 0.754983,-0.7967636 2.492431,-1.635557 4,-1.59375 z"
     style="color:#000000;fill:#5a759c;fill-opacity:1;fill-rule:nonzero;stroke:none;stroke-width:1px;marker:none;visibility:visible;display:inline;overflow:visible;enable-background:accumulate"
     inkscape:connector-curvature="0" />
  <path
     style="color:#000000;fill:#000000;fill-opacity:0.25448028;fill-rule:nonzero;stroke:none;stroke-width:3.31878233px;marker:none;visibility:visible;display:inline;overflow:visible;enable-background:accumulate"
     d="m 16.364593,50.913684 c -5.504022,3.851199 -2.645765,7.524647 2.812499,9.343754 l 10.635132,0.164331 -0.06362,-6.133513 z"
     id="path4002"
     inkscape:connector-curvature="0"
     sodipodi:nodetypes="ccccc" />
  <g
     id="g3915"
     transform="matrix(-1.4046067,0.22298603,0.22298603,1.4046067,55.110072,-25.788928)"
     inkscape:transform-center-x="5.6427557"
     inkscape:transform-center-y="-0.20760551">
    <path
       style="color:#000000;display:inline;overflow:visible;visibility:visible;opacity:1;fill:#162f4d;fill-opacity:0.35241502;fill-rule:nonzero;stroke:none;stroke-width:0.43804985;stroke-linecap:butt;stroke-linejoin:miter;stroke-miterlimit:4;stroke-dasharray:none;stroke-dashoffset:0;stroke-opacity:1;marker:none;enable-background:accumulate"
       d="m 27.823185,42.4746 -4.461348,2.939963 -0.254516,-0.239828 -0.07974,0.07618 -0.07618,-0.07975 -6.992952,4.494061 -0.667927,-0.35329 -0.08153,0.154137 -2.564548,0.72133 -3.7906886,0.901275 C 7.3524957,54.903433 8.7226308,54.7122 11.286819,57.149183 l 2.181704,0.101924 2.027459,0.125666 4.29389,-4.711825 0.05138,0.02718 0.406452,-0.718711 -0.07677,-0.05376 4.606921,-4.756663 -0.07618,-0.07974 0.186665,-0.203733 -0.35668,-0.320167 3.775164,-3.631676 z"
       id="path3913-1"
       inkscape:connector-curvature="0"
       sodipodi:nodetypes="ccccccccccccccccccccccc" />
    <path
       style="fill:#4e6581;fill-opacity:1;stroke:none;stroke-width:1.42219651"
       d="M 24.458984 37.699219 L 23.875 38.427734 L 30.246094 42.902344 L 29.787109 43.599609 L 45.681641 55.521484 L 50.292969 48.490234 L 31.888672 40.402344 L 31.539062 40.933594 L 24.458984 37.699219 z "
       transform="matrix(-0.69444132,0.11024489,0.11024489,0.69444132,41.113809,11.833293)"
       id="path3913" />
    <path
       sodipodi:nodetypes="ccccccc"
       inkscape:connector-curvature="0"
       id="path3887"
       d="m 15.954096,55.603108 4.507806,-4.949748 -5.08233,-2.740039 -6.0546019,1.414214 c -1.5012591,3.814754 0.7503759,6.357658 3.3145629,8.79464 l 2.165515,0.08839 z"
       style="fill:#5a759c;fill-opacity:1;stroke:none" />
    <circle
       style="color:#000000;fill:#ffffff;fill-opacity:1;fill-rule:nonzero;stroke:none;stroke-width:2.28571415000000000;marker:none;visibility:visible;display:inline;overflow:visible;enable-background:accumulate;opacity:0.62204724"
       id="path3909"
       transform="matrix(2.2496271,0,0,2.2496271,-40.436736,-79.032081)"
       sodipodi:type="arc"
       sodipodi:ry="0.92968744"
       sodipodi:rx="0.92968744"
       sodipodi:cy="57.804688"
       sodipodi:cx="25.007811"
       d="m 25.937498,57.804687 c 0,0.513453 -0.416235,0.929688 -0.929687,0.929688 -0.513453,0 -0.929688,-0.416235 -0.929688,-0.929688 0,-0.513452 0.416235,-0.929687 0.929688,-0.929687 0.513452,0 0.929687,0.416235 0.929687,0.929687 z" />
  </g>
  <path
     style="fill:#bfccd6;fill-opacity:1;stroke:none"
     d="m 59.75,42.78125 0,10.5 c 0,4.177825 -0.753165,7.1875 -4.5,7.1875 l -18.03125,0 0,-4.96875 5.40625,1.875 c 3.073656,1.123123 8.982436,-3.797156 3.8125,-10.0625 1.587673,-1.315148 2.992912,-2.846251 4.1875,-4.53125 l 9.125,0 z"
     id="path3865"
     inkscape:connector-curvature="0" />
  <path
     style="fill:#5a759c;fill-opacity:1;stroke:none"
     d="m 54.1875,35.1875 5.5625,3.21875 0,3.75 -8.65625,-0.03125 c 1.383522,-2.099373 2.439987,-4.440177 3.09375,-6.9375 z"
     id="path3955"
     inkscape:connector-curvature="0" />
  <path
     sodipodi:type="arc"
     style="color:#000000;fill:#ffffff;fill-opacity:1;fill-rule:nonzero;stroke:none;stroke-width:1px;marker:none;visibility:visible;display:inline;overflow:visible;enable-background:accumulate;opacity:0.62204724"
     id="path4059"
     sodipodi:cx="8.5294752"
     sodipodi:cy="40.444508"
     sodipodi:rx="1.3700193"
     sodipodi:ry="1.3700193"
     d="m 9.8994945,40.444508 a 1.3700193,1.3700193 0 1 1 -2.7400386,0 1.3700193,1.3700193 0 1 1 2.7400386,0 z"
     transform="matrix(-1.1290323,0,0,1.1290323,64.747024,-5.7047821)" />
  <path
     transform="matrix(-3.3187824,0,0,3.3187824,36.549445,-86.205645)"
     d="m 9.8994945,40.444508 a 1.3700193,1.3700193 0 1 1 -2.7400386,0 1.3700193,1.3700193 0 1 1 2.7400386,0 z"
     sodipodi:ry="1.3700193"
     sodipodi:rx="1.3700193"
     sodipodi:cy="40.444508"
     sodipodi:cx="8.5294752"
     id="path3965"
     style="color:#000000;fill:#000000;fill-opacity:0.25448028;fill-rule:nonzero;stroke:none;stroke-width:1px;marker:none;visibility:visible;display:inline;overflow:visible;enable-background:accumulate"
     sodipodi:type="arc" />
  <path
     sodipodi:nodetypes="ccccc"
     inkscape:connector-curvature="0"
     id="path4044"
     d="m 49.460117,14.281556 1.800912,-2.530116 c 0.497376,-0.770723 -0.768478,-1.8929365 -1.568892,-0.98332 l -1.513651,2.099223 z"
     style="color:#000000;fill:#5a759c;fill-opacity:1;fill-rule:nonzero;stroke:none;stroke-width:1px;marker:none;visibility:visible;display:inline;overflow:visible;enable-background:accumulate" />
  <path
     sodipodi:nodetypes="ccccccc"
     inkscape:connector-curvature="0"
     id="path4080"
     d="m 16.364593,50.913684 -1.5,4.34375 5.833558,4.988024 -11.989808,0.04323 -5.53125,-5.53125 -0.11599,-5.844182 z"
     style="color:#000000;fill:#5a759c;fill-opacity:1;fill-rule:nonzero;stroke:none;stroke-width:1px;marker:none;visibility:visible;display:inline;overflow:visible;enable-background:accumulate" />
  <path
     inkscape:connector-curvature="0"
     d="M 0,6 2,4 0,3 Z"
     id="path3028-3"
     style="fill:#7598c2;fill-opacity:1" />
</svg>

<svg xmlns="http://www.w3.org/2000/svg" viewBox="0 0 64 64"><g color="#000"><path d="m64 4v30 28l-2 2h-30-30l-2-2v-28-30h32 32" fill="#3b577a"/><path d="m62 0l2 1v3h-32-32v-3l2-1h30 30" fill="#668cbb"/></g><path d="m64 6l-2-2 2-1z" fill="#4f7098"/><path d="m31.5 5.875c4.219 0 8.177 1.106 11.594 3.063.73-.441 1.581-.849 2.438-.875.191-.006.374-.004.563.031l4.938 1.688c1.29.594 1.365 1.814.75 2.781l-1.719 2.531c3 3.931 4.813 8.828 4.813 14.156 0 1.771-.22 3.499-.594 5.156l5.969 3.469v3.813 14.688c-.341 2.29-1.39 3.937-3.563 4.563h-48.31l-5.813-6.06v-5.781c-.076-.37-.125-.764-.125-1.156 0-3.141 2.546-5.688 5.688-5.688 1.677 0 3.178.721 4.219 1.875l.656-.625c-3.049-3.942-4.875-8.879-4.875-14.25 0-4.624 1.369-8.935 3.688-12.563l-2.219-1.188c0-4.911 3.348-8.188 8.219-8.188h5.656c2.505-.917 5.209-1.438 8.03-1.438" fill="#162f4d" fill-opacity=".352"/><g color="#000"><path d="m51.53041 32.25a19.0304 19.0304 0 1 1 -38.06081 0 19.0304 19.0304 0 1 1 38.06081 0" transform="matrix(-1.06502 0 0 1.06502 66.11-5.102)" fill="#bfccd6"/><circle transform="matrix(-.39411 0 0-.39411 44.31 41.955)" cx="32.5" cy="32.25" r="19.03" fill-opacity=".581" fill="#162f4d"/><path d="m17.188 8.469l3.688.031c-2.131 1.094-4.094 2.488-5.781 4.156l-1.906-2.594c.755-.797 2.492-1.636 4-1.594" fill="#5a759c"/><path d="m16.365 50.914c-5.504 3.851-2.646 7.525 2.812 9.344l10.635.164-.064-6.134z" fill-opacity=".254"/></g><g transform="matrix(-1.40461.22299.22299 1.40461 55.11-25.789)"><path d="m27.823 42.475l-4.461 2.94-.255-.24-.08.076-.076-.08-6.993 4.494-.668-.353-.082.154-2.565.721-3.791.901c-1.501 3.815-.131 3.624 2.433 6.06l2.182.102 2.027.126 4.294-4.712.051.027.406-.719-.077-.054 4.607-4.757-.076-.08.187-.204-.357-.32 3.775-3.632z" fill-opacity=".352" color="#000" fill="#162f4d"/><path d="m24.459 37.699l-.584.729 6.371 4.475-.459.697 15.895 11.922 4.611-7.03-18.404-8.09-.35.531-7.08-3.234" transform="matrix(-.69444.11024.11024.69444 41.11 11.833)" fill="#4e6581"/><path d="m15.954 55.6l4.508-4.95-5.082-2.74-6.05 1.414c-1.501 3.815.75 6.358 3.315 8.795l2.166.088z" fill="#5a759c"/></g><path d="m59.75 42.781v10.5c0 4.178-.753 7.188-4.5 7.188h-18.03v-4.969l5.406 1.875c3.074 1.123 8.982-3.797 3.813-10.06 1.588-1.315 2.993-2.846 4.188-4.531h9.125" fill="#bfccd6"/><path d="m54.19 35.19l5.563 3.219v3.75l-8.656-.031c1.384-2.099 2.44-4.44 3.094-6.938" fill="#5a759c"/><g color="#000"><path d="m9.899495 40.444508a1.370019 1.370019 0 1 1 -2.740039 0 1.370019 1.370019 0 1 1 2.740039 0" transform="matrix(-1.12903 0 0 1.12903 64.747-5.705)" opacity=".622" fill="#fff"/><path transform="matrix(-3.31878 0 0 3.31878 36.549-86.21)" d="m9.899495 40.444508a1.370019 1.370019 0 1 1 -2.740039 0 1.370019 1.370019 0 1 1 2.740039 0" fill-opacity=".254"/><g fill="#5a759c"><path d="m49.46 14.282l1.801-2.53c.497-.771-.768-1.893-1.569-.983l-1.514 2.099z"/><path d="m16.365 50.914l-1.5 4.344 5.834 4.988-11.99.043-5.531-5.531-.116-5.844z"/></g></g><path d="m0 6l2-2-2-1" fill="#7598c2"/></svg>
